bernoullicharts/arcsin_x_sqrt_1-x_x_-1_bits.svg

<?xml version="1.0" encoding="utf-8" standalone="no"?>
<!DOCTYPE svg PUBLIC "-//W3C//DTD SVG 1.1//EN"
  "http://www.w3.org/Graphics/SVG/1.1/DTD/svg11.dtd">
<!-- Created with matplotlib (https://matplotlib.org/) -->
<svg height="345.6pt" version="1.1" viewBox="0 0 460.8 345.6" width="460.8pt" xmlns="http://www.w3.org/2000/svg" xmlns:xlink="http://www.w3.org/1999/xlink">
 <defs>
  <style type="text/css">
*{stroke-linecap:butt;stroke-linejoin:round;}
  </style>
 </defs>
 <g id="figure_1">
  <g id="patch_1">
   <path d="M 0 345.6 
L 460.8 345.6 
L 460.8 0 
L 0 0 
z
" style="fill:#ffffff;"/>
  </g>
  <g id="axes_1">
   <g id="patch_2">
    <path d="M 57.6 307.584 
L 414.72 307.584 
L 414.72 41.472 
L 57.6 41.472 
z
" style="fill:#ffffff;"/>
   </g>
   <g id="matplotlib.axis_1">
    <g id="xtick_1">
     <g id="line2d_1">
      <defs>
       <path d="M 0 0 
L 0 3.5 
" id="mf0cd64fc6e" style="stroke:#000000;stroke-width:0.8;"/>
      </defs>
      <g>
       <use style="stroke:#000000;stroke-width:0.8;" x="73.800255" xlink:href="#mf0cd64fc6e" y="307.584"/>
      </g>
     </g>
     <g id="text_1">
      <text style="font-family:DejaVu Sans;font-size:10px;font-style:normal;font-weight:normal;text-anchor:middle;" transform="rotate(-0, 73.800255, 322.182437)" x="73.800255" y="322.182437">0.0</text>
     </g>
    </g>
    <g id="xtick_2">
     <g id="line2d_2">
      <g>
       <use style="stroke:#000000;stroke-width:0.8;" x="138.744153" xlink:href="#mf0cd64fc6e" y="307.584"/>
      </g>
     </g>
     <g id="text_2">
      <text style="font-family:DejaVu Sans;font-size:10px;font-style:normal;font-weight:normal;text-anchor:middle;" transform="rotate(-0, 138.744153, 322.182437)" x="138.744153" y="322.182437">0.2</text>
     </g>
    </g>
    <g id="xtick_3">
     <g id="line2d_3">
      <g>
       <use style="stroke:#000000;stroke-width:0.8;" x="203.688051" xlink:href="#mf0cd64fc6e" y="307.584"/>
      </g>
     </g>
     <g id="text_3">
      <text style="font-family:DejaVu Sans;font-size:10px;font-style:normal;font-weight:normal;text-anchor:middle;" transform="rotate(-0, 203.688051, 322.182437)" x="203.688051" y="322.182437">0.4</text>
     </g>
    </g>
    <g id="xtick_4">
     <g id="line2d_4">
      <g>
       <use style="stroke:#000000;stroke-width:0.8;" x="268.631949" xlink:href="#mf0cd64fc6e" y="307.584"/>
      </g>
     </g>
     <g id="text_4">
      <text style="font-family:DejaVu Sans;font-size:10px;font-style:normal;font-weight:normal;text-anchor:middle;" transform="rotate(-0, 268.631949, 322.182437)" x="268.631949" y="322.182437">0.6</text>
     </g>
    </g>
    <g id="xtick_5">
     <g id="line2d_5">
      <g>
       <use style="stroke:#000000;stroke-width:0.8;" x="333.575847" xlink:href="#mf0cd64fc6e" y="307.584"/>
      </g>
     </g>
     <g id="text_5">
      <text style="font-family:DejaVu Sans;font-size:10px;font-style:normal;font-weight:normal;text-anchor:middle;" transform="rotate(-0, 333.575847, 322.182437)" x="333.575847" y="322.182437">0.8</text>
     </g>
    </g>
    <g id="xtick_6">
     <g id="line2d_6">
      <g>
       <use style="stroke:#000000;stroke-width:0.8;" x="398.519745" xlink:href="#mf0cd64fc6e" y="307.584"/>
      </g>
     </g>
     <g id="text_6">
      <text style="font-family:DejaVu Sans;font-size:10px;font-style:normal;font-weight:normal;text-anchor:middle;" transform="rotate(-0, 398.519745, 322.182437)" x="398.519745" y="322.182437">1.0</text>
     </g>
    </g>
    <g id="text_7">
     <text style="font-family:DejaVu Sans;font-size:10px;font-style:normal;font-weight:normal;text-anchor:middle;" transform="rotate(-0, 236.16, 335.860562)" x="236.16" y="335.860562">Probability</text>
    </g>
   </g>
   <g id="matplotlib.axis_2">
    <g id="ytick_1">
     <g id="line2d_7">
      <defs>
       <path d="M 0 0 
L -3.5 0 
" id="medf07fbd4a" style="stroke:#000000;stroke-width:0.8;"/>
      </defs>
      <g>
       <use style="stroke:#000000;stroke-width:0.8;" x="57.6" xlink:href="#medf07fbd4a" y="275.21479"/>
      </g>
     </g>
     <g id="text_8">
      <text style="font-family:DejaVu Sans;font-size:10px;font-style:normal;font-weight:normal;text-anchor:end;" transform="rotate(-0, 50.6, 279.014009)" x="50.6" y="279.014009">16</text>
     </g>
    </g>
    <g id="ytick_2">
     <g id="line2d_8">
      <g>
       <use style="stroke:#000000;stroke-width:0.8;" x="57.6" xlink:href="#medf07fbd4a" y="222.964251"/>
      </g>
     </g>
     <g id="text_9">
      <text style="font-family:DejaVu Sans;font-size:10px;font-style:normal;font-weight:normal;text-anchor:end;" transform="rotate(-0, 50.6, 226.763469)" x="50.6" y="226.763469">17</text>
     </g>
    </g>
    <g id="ytick_3">
     <g id="line2d_9">
      <g>
       <use style="stroke:#000000;stroke-width:0.8;" x="57.6" xlink:href="#medf07fbd4a" y="170.713711"/>
      </g>
     </g>
     <g id="text_10">
      <text style="font-family:DejaVu Sans;font-size:10px;font-style:normal;font-weight:normal;text-anchor:end;" transform="rotate(-0, 50.6, 174.512929)" x="50.6" y="174.512929">18</text>
     </g>
    </g>
    <g id="ytick_4">
     <g id="line2d_10">
      <g>
       <use style="stroke:#000000;stroke-width:0.8;" x="57.6" xlink:href="#medf07fbd4a" y="118.463171"/>
      </g>
     </g>
     <g id="text_11">
      <text style="font-family:DejaVu Sans;font-size:10px;font-style:normal;font-weight:normal;text-anchor:end;" transform="rotate(-0, 50.6, 122.262389)" x="50.6" y="122.262389">19</text>
     </g>
    </g>
    <g id="ytick_5">
     <g id="line2d_11">
      <g>
       <use style="stroke:#000000;stroke-width:0.8;" x="57.6" xlink:href="#medf07fbd4a" y="66.212631"/>
      </g>
     </g>
     <g id="text_12">
      <text style="font-family:DejaVu Sans;font-size:10px;font-style:normal;font-weight:normal;text-anchor:end;" transform="rotate(-0, 50.6, 70.011849)" x="50.6" y="70.011849">20</text>
     </g>
    </g>
    <g id="text_13">
     <text style="font-family:DejaVu Sans;font-size:10px;font-style:normal;font-weight:normal;text-anchor:middle;" transform="rotate(-90, 31.795312, 174.528)" x="31.795312" y="174.528">Average Bits Consumed Per Call</text>
    </g>
   </g>
   <g id="line2d_12">
    <path clip-path="url(#p361af895c5)" d="M 73.832727 226.517287 
L 77.112066 203.213546 
L 80.391405 230.174825 
L 83.670744 246.16349 
L 86.950083 231.533339 
L 90.229421 215.649175 
L 93.50876 215.544674 
L 96.788099 200.287516 
L 100.067438 209.274609 
L 103.346777 260.062134 
L 106.626116 247.417503 
L 109.905455 255.255084 
L 113.184793 229.443317 
L 116.464132 252.224553 
L 119.743471 254.941581 
L 123.02281 226.203784 
L 126.302149 248.880518 
L 129.581488 264.242177 
L 132.860826 260.375637 
L 136.140165 264.764683 
L 139.419504 242.610454 
L 142.698843 292.666471 
L 145.978182 252.642557 
L 149.257521 261.420648 
L 152.53686 275.841797 
L 155.816198 258.599119 
L 159.095537 267.690713 
L 162.374876 249.507525 
L 165.654215 285.142393 
L 168.933554 268.944726 
L 172.212893 262.256657 
L 175.492231 264.55568 
L 178.77157 233.414359 
L 182.050909 271.661754 
L 185.330248 277.827317 
L 188.609587 284.097382 
L 191.888926 275.528294 
L 195.168264 280.753348 
L 198.447603 263.301667 
L 201.726942 289.217935 
L 205.006281 282.843369 
L 208.28562 249.716527 
L 211.564959 258.599119 
L 214.844298 281.066851 
L 218.123636 273.647274 
L 221.402975 270.094238 
L 224.682314 290.576449 
L 227.961653 268.213218 
L 231.240992 285.455896 
L 234.520331 258.181114 
L 237.799669 268.213218 
L 241.079008 276.050799 
L 244.358347 281.171352 
L 247.637686 277.722816 
L 250.917025 257.136104 
L 254.196364 274.378782 
L 257.475702 258.390117 
L 260.755041 276.677806 
L 264.03438 273.647274 
L 267.313719 261.002644 
L 270.593058 277.722816 
L 273.872397 281.275853 
L 277.151736 272.706765 
L 280.431074 269.885235 
L 283.710413 272.28876 
L 286.989752 259.748631 
L 290.269091 277.618315 
L 293.54843 268.944726 
L 296.827769 289.322436 
L 300.107107 276.677806 
L 303.386446 290.262946 
L 306.665785 277.722816 
L 309.945124 273.438272 
L 313.224463 291.934963 
L 316.503802 287.127914 
L 319.78314 250.657037 
L 323.062479 242.610454 
L 326.341818 274.796786 
L 329.621157 295.488 
L 332.900496 266.854704 
L 336.179835 241.983447 
L 339.459174 250.552536 
L 342.738512 286.396406 
L 346.017851 269.571732 
L 349.29719 228.189305 
L 352.576529 247.522004 
L 355.855868 243.341961 
L 359.135207 224.531767 
L 362.414545 267.063706 
L 365.693884 245.954488 
L 368.973223 255.986592 
L 372.252562 216.067179 
L 375.531901 189.523905 
L 378.81124 243.968968 
L 382.090579 196.525477 
L 385.369917 165.488657 
L 388.649256 212.618644 
L 391.928595 144.692942 
L 395.207934 53.568 
L 398.487273 55.031015 
" style="fill:none;stroke:#1f77b4;stroke-linecap:square;stroke-width:1.5;"/>
   </g>
   <g id="patch_3">
    <path d="M 57.6 307.584 
L 57.6 41.472 
" style="fill:none;stroke:#000000;stroke-linecap:square;stroke-linejoin:miter;stroke-width:0.8;"/>
   </g>
   <g id="patch_4">
    <path d="M 414.72 307.584 
L 414.72 41.472 
" style="fill:none;stroke:#000000;stroke-linecap:square;stroke-linejoin:miter;stroke-width:0.8;"/>
   </g>
   <g id="patch_5">
    <path d="M 57.6 307.584 
L 414.72 307.584 
" style="fill:none;stroke:#000000;stroke-linecap:square;stroke-linejoin:miter;stroke-width:0.8;"/>
   </g>
   <g id="patch_6">
    <path d="M 57.6 41.472 
L 414.72 41.472 
" style="fill:none;stroke:#000000;stroke-linecap:square;stroke-linejoin:miter;stroke-width:0.8;"/>
   </g>
   <g id="text_14">
    <text style="font-family:DejaVu Sans;font-size:12px;font-style:normal;font-weight:normal;text-anchor:middle;" transform="rotate(-0, 236.16, 35.472)" x="236.16" y="35.472">Avg. Bits Consumed by arcsin(x)+sqrt(1-x*x)-1 Algorithm</text>
   </g>
   <g id="legend_1">
    <g id="patch_7">
     <path d="M 64.6 64.150125 
L 212.709375 64.150125 
Q 214.709375 64.150125 214.709375 62.150125 
L 214.709375 48.472 
Q 214.709375 46.472 212.709375 46.472 
L 64.6 46.472 
Q 62.6 46.472 62.6 48.472 
L 62.6 62.150125 
Q 62.6 64.150125 64.6 64.150125 
z
" style="fill:#ffffff;opacity:0.8;stroke:#cccccc;stroke-linejoin:miter;"/>
    </g>
    <g id="line2d_13">
     <path d="M 66.6 54.570438 
L 86.6 54.570438 
" style="fill:none;stroke:#1f77b4;stroke-linecap:square;stroke-width:1.5;"/>
    </g>
    <g id="line2d_14"/>
    <g id="text_15">
     <text style="font-family:DejaVu Sans;font-size:10px;font-style:normal;font-weight:normal;text-anchor:start;" transform="rotate(-0, 94.6, 58.070438)" x="94.6" y="58.070438">arcsin(x)+sqrt(1-x*x)-1</text>
    </g>
   </g>
  </g>
 </g>
 <defs>
  <clipPath id="p361af895c5">
   <rect height="266.112" width="357.12" x="57.6" y="41.472"/>
  </clipPath>
 </defs>
</svg>

<svg height="460.8" viewBox="0 0 460.8 345.6" width="614.4" xmlns="http://www.w3.org/2000/svg" xmlns:xlink="http://www.w3.org/1999/xlink"><defs><style>*{stroke-linecap:butt;stroke-linejoin:round}</style></defs><g id="figure_1"><path d="M0 345.6h460.8V0H0z" fill="#fff" id="patch_1"/><g id="axes_1"><path d="M57.6 307.584h357.12V41.472H57.6z" fill="#fff" id="patch_2"/><g id="matplotlib.axis_1"><g id="xtick_1"><g id="line2d_1"><defs><path d="M0 0v3.5" id="mf0cd64fc6e" stroke="#000" stroke-width=".8"/></defs><use x="73.8" xlink:href="#mf0cd64fc6e" y="307.584" stroke="#000" stroke-width=".8"/></g><text x="73.8" y="322.182" font-family="DejaVu Sans" font-size="10" font-weight="400" text-anchor="middle" id="text_1">0.0</text></g><g id="xtick_2"><use x="138.744" xlink:href="#mf0cd64fc6e" y="307.584" stroke="#000" stroke-width=".8" id="line2d_2"/><text x="138.744" y="322.182" font-family="DejaVu Sans" font-size="10" font-weight="400" text-anchor="middle" id="text_2">0.2</text></g><g id="xtick_3"><use x="203.688" xlink:href="#mf0cd64fc6e" y="307.584" stroke="#000" stroke-width=".8" id="line2d_3"/><text x="203.688" y="322.182" font-family="DejaVu Sans" font-size="10" font-weight="400" text-anchor="middle" id="text_3">0.4</text></g><g id="xtick_4"><use x="268.632" xlink:href="#mf0cd64fc6e" y="307.584" stroke="#000" stroke-width=".8" id="line2d_4"/><text x="268.632" y="322.182" font-family="DejaVu Sans" font-size="10" font-weight="400" text-anchor="middle" id="text_4">0.6</text></g><g id="xtick_5"><use x="333.576" xlink:href="#mf0cd64fc6e" y="307.584" stroke="#000" stroke-width=".8" id="line2d_5"/><text x="333.576" y="322.182" font-family="DejaVu Sans" font-size="10" font-weight="400" text-anchor="middle" id="text_5">0.8</text></g><g id="xtick_6"><use x="398.52" xlink:href="#mf0cd64fc6e" y="307.584" stroke="#000" stroke-width=".8" id="line2d_6"/><text x="398.52" y="322.182" font-family="DejaVu Sans" font-size="10" font-weight="400" text-anchor="middle" id="text_6">1.0</text></g><text x="236.16" y="335.861" font-family="DejaVu Sans" font-size="10" font-weight="400" text-anchor="middle" id="text_7">Probability</text></g><g id="matplotlib.axis_2"><g id="ytick_1"><g id="line2d_7"><defs><path d="M0 0h-3.5" id="medf07fbd4a" stroke="#000" stroke-width=".8"/></defs><use x="57.6" xlink:href="#medf07fbd4a" y="275.215" stroke="#000" stroke-width=".8"/></g><text x="50.6" y="279.014" font-family="DejaVu Sans" font-size="10" font-weight="400" text-anchor="end" id="text_8">16</text></g><g id="ytick_2"><use x="57.6" xlink:href="#medf07fbd4a" y="222.964" stroke="#000" stroke-width=".8" id="line2d_8"/><text x="50.6" y="226.763" font-family="DejaVu Sans" font-size="10" font-weight="400" text-anchor="end" id="text_9">17</text></g><g id="ytick_3"><use x="57.6" xlink:href="#medf07fbd4a" y="170.714" stroke="#000" stroke-width=".8" id="line2d_9"/><text x="50.6" y="174.513" font-family="DejaVu Sans" font-size="10" font-weight="400" text-anchor="end" id="text_10">18</text></g><g id="ytick_4"><use x="57.6" xlink:href="#medf07fbd4a" y="118.463" stroke="#000" stroke-width=".8" id="line2d_10"/><text x="50.6" y="122.262" font-family="DejaVu Sans" font-size="10" font-weight="400" text-anchor="end" id="text_11">19</text></g><g id="ytick_5"><use x="57.6" xlink:href="#medf07fbd4a" y="66.213" stroke="#000" stroke-width=".8" id="line2d_11"/><text x="50.6" y="70.012" font-family="DejaVu Sans" font-size="10" font-weight="400" text-anchor="end" id="text_12">20</text></g><text transform="rotate(-90 31.795 174.528)" x="31.795" y="174.528" font-family="DejaVu Sans" font-size="10" font-weight="400" text-anchor="middle" id="text_13">Average Bits Consumed Per Call</text></g><path clip-path="url(#p361af895c5)" d="M73.833 226.517l3.28-23.303 3.278 26.96 3.28 15.99 3.28-14.63 3.278-15.885 3.28-.104 3.28-15.257 3.278 8.987 3.28 50.787 3.28-12.644 3.278 7.837 3.28-25.812 3.28 22.782 3.278 2.717 3.28-28.738 3.28 22.677 3.278 15.361 3.28-3.866 3.28 4.389 3.279-22.155 3.279 50.056 3.28-40.023 3.279 8.778 3.279 14.42 3.28-17.242 3.279 9.092 3.279-18.183 3.28 35.634 3.279-16.197 3.279-6.688 3.28 2.299 3.279-31.142 3.279 38.248 3.28 6.165 3.279 6.27 3.279-8.569 3.28 5.225 3.279-17.451 3.279 25.916 3.28-6.375 3.279-33.126 3.279 8.882 3.28 22.468 3.279-7.42 3.279-3.553 3.28 20.482 3.279-22.363 3.279 17.243 3.28-27.275 3.279 10.032 3.279 7.838 3.28 5.12 3.279-3.448 3.279-20.587 3.28 17.243 3.279-15.989 3.279 18.288 3.28-3.03 3.279-12.645 3.28 16.72 3.278 3.553 3.28-8.57 3.28-2.82 3.278 2.403 3.28-12.54 3.28 17.87 3.278-8.674 3.28 20.377 3.28-12.644 3.278 13.585 3.28-12.54 3.28-4.285 3.278 18.497 3.28-4.807 3.28-36.471 3.278-8.047 3.28 32.187 3.28 20.691 3.278-28.633 3.28-24.872 3.28 8.57 3.279 35.843 3.279-16.824 3.28-41.383 3.279 19.333 3.279-4.18 3.28-18.81 3.279 42.532 3.279-21.11 3.28 10.033 3.279-39.92 3.279-26.543 3.28 54.445 3.279-47.444 3.279-31.036 3.28 47.13 3.279-67.926 3.279-91.125 3.28 1.463" fill="none" stroke="#1f77b4" stroke-linecap="square" stroke-width="1.5" id="line2d_12"/><path d="M57.6 307.584V41.472" fill="none" stroke="#000" stroke-linecap="square" stroke-width=".8" id="patch_3"/><path d="M414.72 307.584V41.472" fill="none" stroke="#000" stroke-linecap="square" stroke-width=".8" id="patch_4"/><path d="M57.6 307.584h357.12" fill="none" stroke="#000" stroke-linecap="square" stroke-width=".8" id="patch_5"/><path d="M57.6 41.472h357.12" fill="none" stroke="#000" stroke-linecap="square" stroke-width=".8" id="patch_6"/><text x="236.16" y="35.472" font-family="DejaVu Sans" font-size="12" font-weight="400" text-anchor="middle" id="text_14">Avg. Bits Consumed by arcsin(x)+sqrt(1-x*x)-1 Algorithm</text><g id="legend_1"><path d="M64.6 64.15h148.11q2 0 2-2V48.472q0-2-2-2H64.6q-2 0-2 2V62.15q0 2 2 2z" fill="#fff" opacity=".8" stroke="#ccc" id="patch_7"/><path d="M66.6 54.57h20" fill="none" stroke="#1f77b4" stroke-linecap="square" stroke-width="1.5" id="line2d_13"/><text x="94.6" y="58.07" font-family="DejaVu Sans" font-size="10" font-weight="400" id="text_15">arcsin(x)+sqrt(1-x*x)-1</text></g></g></g><defs><clipPath id="p361af895c5"><path d="M57.6 41.472h357.12v266.112H57.6z"/></clipPath></defs></svg>
